svg/color/arcona.svg

<?xml version="1.0" encoding="UTF-8" ?>
<!DOCTYPE svg PUBLIC "-//W3C//DTD SVG 1.1//EN" "http://www.w3.org/Graphics/SVG/1.1/DTD/svg11.dtd">
<svg width="250pt" height="250pt" viewBox="0 0 250 250" version="1.1" xmlns="http://www.w3.org/2000/svg">
<g id="#ffffffff">
<path fill="#ffffff" opacity="1.00" d=" M 0.00 0.00 L 121.24 0.00 C 116.19 0.65 111.27 2.29 106.86 4.85 C 80.04 20.06 53.20 35.22 26.39 50.43 C 16.25 56.08 9.69 67.40 9.72 78.99 C 9.72 109.34 9.74 139.68 9.72 170.03 C 9.64 179.00 13.29 187.98 19.86 194.14 C 23.27 197.59 27.63 199.80 31.80 202.16 C 56.93 216.38 82.04 230.61 107.17 244.83 C 114.64 249.11 123.74 250.80 132.15 248.64 C 138.24 247.35 143.45 243.84 148.81 240.86 C 173.10 227.12 197.38 213.37 221.67 199.62 C 229.34 195.41 235.45 188.22 237.84 179.74 C 239.42 174.67 239.31 169.30 239.25 164.05 C 239.23 135.70 239.27 107.34 239.23 78.99 C 239.22 67.42 232.73 56.11 222.61 50.45 C 196.45 35.57 170.22 20.80 144.05 5.94 C 138.97 2.85 133.35 0.60 127.40 0.00 L 250.00 0.00 L 250.00 250.00 L 0.00 250.00 L 0.00 0.00 Z" />
<path fill="#ffffff" opacity="1.00" d=" M 117.45 11.66 C 123.33 9.55 130.06 10.32 135.43 13.47 C 162.89 29.03 190.36 44.55 217.81 60.13 C 222.73 62.88 226.37 67.75 227.66 73.23 C 228.54 76.74 228.26 80.38 228.29 83.96 C 228.29 112.97 228.28 141.97 228.29 170.98 C 228.47 178.54 224.17 185.89 217.57 189.54 C 190.12 205.08 162.68 220.63 135.22 236.15 C 128.73 239.95 120.28 239.99 113.80 236.17 C 86.31 220.63 58.85 205.06 31.36 189.52 C 25.08 186.01 20.76 179.18 20.69 171.93 C 20.63 140.96 20.70 109.99 20.65 79.03 C 20.50 73.60 22.43 68.14 26.09 64.12 C 28.51 61.40 31.81 59.74 34.93 57.98 C 61.11 43.17 87.28 28.35 113.45 13.52 C 114.74 12.82 116.06 12.16 117.45 11.66 M 120.51 20.69 C 118.78 21.12 117.14 21.86 115.59 22.72 C 89.85 37.29 64.11 51.87 38.36 66.42 C 33.16 69.29 29.77 75.05 29.76 80.98 C 29.75 110.01 29.77 139.03 29.75 168.05 C 29.58 174.29 33.04 180.47 38.60 183.36 C 63.06 197.22 87.55 211.04 112.00 224.92 C 115.42 226.89 118.95 229.06 122.99 229.36 C 126.75 229.76 130.49 228.59 133.73 226.74 C 159.27 212.27 184.83 197.82 210.36 183.34 C 215.91 180.42 219.31 174.24 219.19 168.01 C 219.20 139.36 219.18 110.71 219.20 82.05 C 219.40 75.81 216.18 69.49 210.63 66.47 C 185.31 52.10 159.96 37.81 134.65 23.42 C 130.50 20.71 125.38 19.59 120.51 20.69 Z" />
<path fill="#ffffff" opacity="1.00" d=" M 127.02 69.47 C 135.38 69.43 143.75 69.39 152.11 69.49 C 167.17 70.05 180.74 82.85 181.61 97.99 C 182.73 110.03 175.84 122.21 165.09 127.67 C 170.26 140.75 176.22 153.53 181.73 166.48 C 177.49 166.52 173.25 166.55 169.01 166.45 C 162.68 151.63 156.21 136.87 149.79 122.10 C 149.44 121.07 149.17 120.01 148.97 118.94 C 154.30 119.15 159.74 117.40 163.52 113.55 C 168.81 108.54 170.53 100.30 167.77 93.57 C 165.06 86.86 158.26 82.06 151.02 81.82 C 144.76 81.62 138.50 81.88 132.25 81.70 C 130.53 77.61 128.70 73.58 127.02 69.47 Z" />
<path fill="#ffffff" opacity="1.00" d=" M 109.38 71.01 C 109.76 68.92 110.94 70.93 111.13 71.77 C 124.75 103.36 138.58 134.86 152.15 166.47 C 147.98 166.53 143.81 166.50 139.64 166.52 C 130.07 144.65 120.65 122.72 111.17 100.81 C 110.76 100.11 110.36 99.41 109.98 98.70 C 100.03 121.26 90.47 143.99 80.49 166.54 C 76.33 166.48 72.18 166.53 68.02 166.48 C 81.70 134.61 95.62 102.84 109.38 71.01 Z" />
</g>
<g id="#197ff8ff">
<path fill="#197ff8" opacity="1.00" d=" M 121.24 0.00 L 127.40 0.00 C 133.35 0.60 138.97 2.85 144.05 5.94 C 170.22 20.80 196.45 35.57 222.61 50.45 C 232.73 56.11 239.22 67.42 239.23 78.99 C 239.27 107.34 239.23 135.70 239.25 164.05 C 239.31 169.30 239.42 174.67 237.84 179.74 C 235.45 188.22 229.34 195.41 221.67 199.62 C 197.38 213.37 173.10 227.12 148.81 240.86 C 143.45 243.84 138.24 247.35 132.15 248.64 C 123.74 250.80 114.64 249.11 107.17 244.83 C 82.04 230.61 56.93 216.38 31.80 202.16 C 27.63 199.80 23.27 197.59 19.86 194.14 C 13.29 187.98 9.64 179.00 9.72 170.03 C 9.74 139.68 9.72 109.34 9.72 78.99 C 9.69 67.40 16.25 56.08 26.39 50.43 C 53.20 35.22 80.04 20.06 106.86 4.85 C 111.27 2.29 116.19 0.65 121.24 0.00 M 117.45 11.66 C 116.06 12.16 114.74 12.82 113.45 13.52 C 87.28 28.35 61.11 43.17 34.93 57.98 C 31.81 59.74 28.51 61.40 26.09 64.12 C 22.43 68.14 20.50 73.60 20.65 79.03 C 20.70 109.99 20.63 140.96 20.69 171.93 C 20.76 179.18 25.08 186.01 31.36 189.52 C 58.85 205.06 86.31 220.63 113.80 236.17 C 120.28 239.99 128.73 239.95 135.22 236.15 C 162.68 220.63 190.12 205.08 217.57 189.54 C 224.17 185.89 228.47 178.54 228.29 170.98 C 228.28 141.97 228.29 112.97 228.29 83.96 C 228.26 80.38 228.54 76.74 227.66 73.23 C 226.37 67.75 222.73 62.88 217.81 60.13 C 190.36 44.55 162.89 29.03 135.43 13.47 C 130.06 10.32 123.33 9.55 117.45 11.66 Z" />
<path fill="#197ff8" opacity="1.00" d=" M 120.51 20.69 C 125.38 19.59 130.50 20.71 134.65 23.42 C 159.96 37.81 185.31 52.10 210.63 66.47 C 216.18 69.49 219.40 75.81 219.20 82.05 C 219.18 110.71 219.20 139.36 219.19 168.01 C 219.31 174.24 215.91 180.42 210.36 183.34 C 184.83 197.82 159.27 212.27 133.73 226.74 C 130.49 228.59 126.75 229.76 122.99 229.36 C 118.95 229.06 115.42 226.89 112.00 224.92 C 87.55 211.04 63.06 197.22 38.60 183.36 C 33.04 180.47 29.58 174.29 29.75 168.05 C 29.77 139.03 29.75 110.01 29.76 80.98 C 29.77 75.05 33.16 69.29 38.36 66.42 C 64.11 51.87 89.85 37.29 115.59 22.72 C 117.14 21.86 118.78 21.12 120.51 20.69 M 127.02 69.47 C 128.70 73.58 130.53 77.61 132.25 81.70 C 138.50 81.88 144.76 81.62 151.02 81.82 C 158.26 82.06 165.06 86.86 167.77 93.57 C 170.53 100.30 168.81 108.54 163.52 113.55 C 159.74 117.40 154.30 119.15 148.97 118.94 C 149.17 120.01 149.44 121.07 149.79 122.10 C 156.21 136.87 162.68 151.63 169.01 166.45 C 173.25 166.55 177.49 166.52 181.73 166.48 C 176.22 153.53 170.26 140.75 165.09 127.67 C 175.84 122.21 182.73 110.03 181.61 97.99 C 180.74 82.85 167.17 70.05 152.11 69.49 C 143.75 69.39 135.38 69.43 127.02 69.47 M 109.38 71.01 C 95.62 102.84 81.70 134.61 68.02 166.48 C 72.18 166.53 76.33 166.48 80.49 166.54 C 90.47 143.99 100.03 121.26 109.98 98.70 C 110.36 99.41 110.76 100.11 111.17 100.81 C 120.65 122.72 130.07 144.65 139.64 166.52 C 143.81 166.50 147.98 166.53 152.15 166.47 C 138.58 134.86 124.75 103.36 111.13 71.77 C 110.94 70.93 109.76 68.92 109.38 71.01 Z" />
</g>
</svg>

<?xml version="1.0" encoding="utf-8"?>
<!-- Generator: Adobe Illustrator 26.0.3, SVG Export Plug-In . SVG Version: 6.00 Build 0)  -->
<svg version="1.1" id="Layer_1" xmlns="http://www.w3.org/2000/svg" xmlns:xlink="http://www.w3.org/1999/xlink" x="0px" y="0px"
	 viewBox="0 0 250 250" style="enable-background:new 0 0 250 250;" xml:space="preserve">
<style type="text/css">
	.st0{fill:#FFFFFF;}
	.st1{fill:#197FF8;}
</style>
<g id="_x23_ffffffff">
	<path class="st0" d="M117.4,11.7c5.9-2.1,12.6-1.3,18,1.8c27.5,15.6,54.9,31.1,82.4,46.7c4.9,2.8,8.6,7.6,9.9,13.1
		c0.9,3.5,0.6,7.1,0.6,10.7c0,29,0,58,0,87c0.2,7.6-4.1,14.9-10.7,18.6c-27.5,15.5-54.9,31.1-82.4,46.6c-6.5,3.8-14.9,3.8-21.4,0
		c-27.5-15.5-55-31.1-82.4-46.6c-6.3-3.5-10.6-10.3-10.7-17.6c-0.1-31,0-61.9,0-92.9c-0.1-5.4,1.8-10.9,5.4-14.9
		c2.4-2.7,5.7-4.4,8.8-6.1c26.2-14.8,52.3-29.6,78.5-44.5C114.7,12.8,116.1,12.2,117.4,11.7 M120.5,20.7c-1.7,0.4-3.4,1.2-4.9,2
		C89.8,37.3,64.1,51.9,38.4,66.4c-5.2,2.9-8.6,8.6-8.6,14.6c0,29,0,58,0,87.1c-0.2,6.2,3.3,12.4,8.8,15.3
		c24.5,13.9,49,27.7,73.4,41.6c3.4,2,6.9,4.1,11,4.4c3.8,0.4,7.5-0.8,10.7-2.6c25.5-14.5,51.1-28.9,76.6-43.4
		c5.6-2.9,8.9-9.1,8.8-15.3c0-28.6,0-57.3,0-86c0.2-6.2-3-12.6-8.6-15.6c-25.3-14.4-50.7-28.7-76-43.1
		C130.5,20.7,125.4,19.6,120.5,20.7z"/>
	<path class="st0" d="M127,69.5c8.4,0,16.7-0.1,25.1,0c15.1,0.6,28.6,13.4,29.5,28.5c1.1,12-5.8,24.2-16.5,29.7
		c5.2,13.1,11.1,25.9,16.6,38.8c-4.2,0-8.5,0.1-12.7,0c-6.3-14.8-12.8-29.6-19.2-44.3c-0.3-1-0.6-2.1-0.8-3.2
		c5.3,0.2,10.8-1.5,14.6-5.4c5.3-5,7-13.2,4.2-20c-2.7-6.7-9.5-11.5-16.8-11.8c-6.3-0.2-12.5,0.1-18.8-0.1
		C130.5,77.6,128.7,73.6,127,69.5z"/>
	<path class="st0" d="M109.4,71c0.4-2.1,1.6-0.1,1.8,0.8c13.6,31.6,27.5,63.1,41,94.7c-4.2,0.1-8.3,0-12.5,0.1
		c-9.6-21.9-19-43.8-28.5-65.7c-0.4-0.7-0.8-1.4-1.2-2.1c-10,22.6-19.5,45.3-29.5,67.8c-4.2-0.1-8.3,0-12.5-0.1
		C81.7,134.6,95.6,102.8,109.4,71z"/>
</g>
<g id="_x23_197ff8ff">
	<path class="st1" d="M121.2,0h6.2c6,0.6,11.6,2.8,16.7,5.9c26.2,14.9,52.4,29.6,78.6,44.5c10.1,5.7,16.6,17,16.6,28.5
		c0,28.3,0,56.7,0,85.1c0.1,5.2,0.2,10.6-1.4,15.7c-2.4,8.5-8.5,15.7-16.2,19.9c-24.3,13.8-48.6,27.5-72.9,41.2
		c-5.4,3-10.6,6.5-16.7,7.8c-8.4,2.2-17.5,0.5-25-3.8c-25.1-14.2-50.2-28.4-75.4-42.7c-4.2-2.4-8.5-4.6-11.9-8
		C13.3,188,9.6,179,9.7,170c0-30.4,0-60.7,0-91c0-11.6,6.5-22.9,16.7-28.6C53.2,35.2,80,20.1,106.9,4.8C111.3,2.3,116.2,0.6,121.2,0
		 M117.4,11.7c-1.4,0.5-2.7,1.2-4,1.9C87.3,28.4,61.1,43.2,34.9,58c-3.1,1.8-6.4,3.4-8.8,6.1c-3.7,4-5.6,9.5-5.4,14.9
		c0.1,31,0,61.9,0,92.9c0.1,7.2,4.4,14.1,10.7,17.6c27.5,15.5,54.9,31.1,82.4,46.6c6.5,3.8,14.9,3.8,21.4,0
		c27.5-15.5,54.9-31.1,82.4-46.6c6.6-3.6,10.9-11,10.7-18.6c0-29,0-58,0-87c0-3.6,0.2-7.2-0.6-10.7c-1.3-5.5-4.9-10.4-9.9-13.1
		c-27.4-15.6-54.9-31.1-82.4-46.7C130.1,10.3,123.3,9.6,117.4,11.7z"/>
	<path class="st1" d="M120.5,20.7c4.9-1.1,10,0,14.1,2.7c25.3,14.4,50.7,28.7,76,43.1c5.5,3,8.8,9.3,8.6,15.6c0,28.7,0,57.3,0,86
		c0.1,6.2-3.3,12.4-8.8,15.3c-25.5,14.5-51.1,28.9-76.6,43.4c-3.2,1.8-7,3-10.7,2.6c-4-0.3-7.6-2.5-11-4.4
		c-24.4-13.9-48.9-27.7-73.4-41.6c-5.6-2.9-9-9.1-8.8-15.3c0-29,0-58,0-87.1c0-5.9,3.4-11.7,8.6-14.6c25.8-14.5,51.5-29.1,77.2-43.7
		C117.1,21.9,118.8,21.1,120.5,20.7 M127,69.5c1.7,4.1,3.5,8.1,5.2,12.2c6.2,0.2,12.5-0.1,18.8,0.1c7.2,0.2,14,5,16.8,11.8
		c2.8,6.7,1,15-4.2,20c-3.8,3.8-9.2,5.6-14.6,5.4c0.2,1.1,0.5,2.1,0.8,3.2c6.4,14.8,12.9,29.5,19.2,44.3c4.2,0.1,8.5,0.1,12.7,0
		c-5.5-12.9-11.5-25.7-16.6-38.8c10.8-5.5,17.6-17.6,16.5-29.7c-0.9-15.1-14.4-27.9-29.5-28.5C143.8,69.4,135.4,69.4,127,69.5
		 M109.4,71c-13.8,31.8-27.7,63.6-41.4,95.5c4.2,0.1,8.3,0,12.5,0.1c10-22.5,19.5-45.3,29.5-67.8c0.4,0.7,0.8,1.4,1.2,2.1
		c9.5,21.9,18.9,43.8,28.5,65.7c4.2,0,8.3,0,12.5-0.1c-13.6-31.6-27.4-63.1-41-94.7C110.9,70.9,109.8,68.9,109.4,71z"/>
</g>
</svg>
